svg/UnitedNations-Flags/flag-bonaire.svg

<?xml version="1.0" encoding="UTF-8" standalone="no"?>
<!-- Created with Inkscape (http://www.inkscape.org/) --><svg height="256" id="svg2" inkscape:output_extension="org.inkscape.output.svg.inkscape" inkscape:version="0.46" sodipodi:docbase="C:\Documents and Settings\David Nelson\Archives\Svg" sodipodi:docname="Flag_of_Bonaire.svg" sodipodi:version="0.32" version="1.0" width="256" xmlns="http://www.w3.org/2000/svg" xmlns:cc="http://creativecommons.org/ns#" xmlns:dc="http://purl.org/dc/elements/1.1/" xmlns:inkscape="http://www.inkscape.org/namespaces/inkscape" xmlns:rdf="http://www.w3.org/1999/02/22-rdf-syntax-ns#" xmlns:sodipodi="http://sodipodi.sourceforge.net/DTD/sodipodi-0.dtd" xmlns:svg="http://www.w3.org/2000/svg">
  <metadata>
    <rdf:RDF xmlns:cc="http://web.resource.org/cc/" xmlns:dc="http://purl.org/dc/elements/1.1/" xmlns:rdf="http://www.w3.org/1999/02/22-rdf-syntax-ns#">
      <cc:Work rdf:about="">
        <dc:title></dc:title>
        <dc:description></dc:description>
        <dc:subject>
          <rdf:Bag>
            <rdf:li>unsorted</rdf:li>
          </rdf:Bag>
        </dc:subject>
        <dc:publisher>
          <cc:Agent rdf:about="http://www.openclipart.org/">
            <dc:title>Open Clip Art Library, Source: Wikimedia Commons, Source: Wikimedia Commons, Source: Wikimedia Commons, Source: Wikimedia Commons</dc:title>
          </cc:Agent>
        </dc:publisher>
        <dc:creator>
          <cc:Agent>
            <dc:title></dc:title>
          </cc:Agent>
        </dc:creator>
        <dc:rights>
          <cc:Agent>
            <dc:title></dc:title>
          </cc:Agent>
        </dc:rights>
        <dc:date></dc:date>
        <dc:format>image/svg+xml</dc:format>
        <dc:type rdf:resource="http://purl.org/dc/dcmitype/StillImage"/>
        <cc:license rdf:resource="http://en.wikipedia.org/wiki/Public_domain"/>
        <dc:language>en</dc:language>
      </cc:Work>
    </rdf:RDF>
  </metadata>
  <defs id="defs4">
    <inkscape:perspective id="perspective17" inkscape:persp3d-origin="300 : 133.33333 : 1" inkscape:vp_x="0 : 200 : 1" inkscape:vp_y="0 : 1000 : 0" inkscape:vp_z="600 : 200 : 1" sodipodi:type="inkscape:persp3d"/>
  </defs>
  <sodipodi:namedview bordercolor="#666666" borderopacity="1.0" gridtolerance="5px" id="base" inkscape:current-layer="layer1" inkscape:cx="300" inkscape:cy="200" inkscape:document-units="px" inkscape:grid-points="false" inkscape:pageopacity="0.0" inkscape:pageshadow="2" inkscape:window-height="674" inkscape:window-width="756" inkscape:window-x="42" inkscape:window-y="25" inkscape:zoom="1.1083333" pagecolor="#ffffff" showgrid="true">
    <inkscape:grid color="#0000ff" empcolor="#0000ff" empopacity="0.4" empspacing="5" enabled="true" id="GridFromPre046Settings" opacity="0.2" originx="0px" originy="0px" spacingx="5px" spacingy="5px" type="xygrid" visible="true"/>
  </sodipodi:namedview>
  <g id="layer1" inkscape:groupmode="layer" inkscape:label="Layer 1">
    <g id="g3586" transform="matrix(0.8533333,0,0,0.853335,0,42.333)">
      <rect height="200" id="rect3579" style="opacity:1;fill:#ffffff;fill-opacity:1;fill-rule:evenodd;stroke:none;stroke-width:5.5;stroke-linecap:round;stroke-linejoin:miter;stroke-miterlimit:4;stroke-dasharray:none;stroke-dashoffset:0;stroke-opacity:1" width="300" x="0" y="0"/>
      <path d="M 82.500001,61 L 89.8709,73.733224 L 104.58365,73.750001 L 97.241802,86.499999 L 104.58365,99.250001 L 89.870902,99.266775 L 82.499999,112 L 75.1291,99.266776 L 60.416352,99.249999 L 67.758198,86.500001 L 60.416353,73.749999 L 75.129098,73.733225 L 82.500001,61 z" id="path3553" inkscape:flatsided="false" inkscape:randomized="0" inkscape:rounded="0" sodipodi:arg1="-1.5707963" sodipodi:arg2="-1.0471976" sodipodi:cx="82.5" sodipodi:cy="86.5" sodipodi:r1="25.5" sodipodi:r2="14.741802" sodipodi:sides="6" sodipodi:type="star" style="opacity:1;fill:#ff0000;fill-opacity:1;fill-rule:evenodd;stroke:none;stroke-width:1;stroke-linecap:round;stroke-linejoin:miter;stroke-miterlimit:4;stroke-dasharray:none;stroke-dashoffset:0;stroke-opacity:1"/>
      <path d="M 122.5,86.5 A 40,40 0 1 1 42.5,86.5 A 40,40 0 1 1 122.5,86.5 z" id="path3559" sodipodi:cx="82.5" sodipodi:cy="86.5" sodipodi:rx="40" sodipodi:ry="40" sodipodi:type="arc" style="opacity:1;fill:none;fill-opacity:1;fill-rule:evenodd;stroke:#000000;stroke-width:5.5;stroke-linecap:round;stroke-linejoin:miter;stroke-miterlimit:4;stroke-dasharray:none;stroke-dashoffset:0;stroke-opacity:1"/>
      <path d="M 83,34.917237 L 88.267827,44.041382 L 77.732173,44.041381 L 83,34.917237 z" id="path3565" inkscape:flatsided="true" inkscape:randomized="0" inkscape:rounded="0" sodipodi:arg1="-1.5707963" sodipodi:arg2="-0.52359878" sodipodi:cx="83" sodipodi:cy="41" sodipodi:r1="6.0827627" sodipodi:r2="3.0413814" sodipodi:sides="3" sodipodi:type="star" style="opacity:1;fill:#000000;fill-opacity:1;fill-rule:evenodd;stroke:none;stroke-width:5.5;stroke-linecap:round;stroke-linejoin:miter;stroke-miterlimit:4;stroke-dasharray:none;stroke-dashoffset:0;stroke-opacity:1" transform="translate(-0.5,0)"/>
      <path d="M 83,34.917237 L 88.267827,44.041382 L 77.732173,44.041381 L 83,34.917237 z" id="path3567" inkscape:flatsided="true" inkscape:randomized="0" inkscape:rounded="0" sodipodi:arg1="-1.5707963" sodipodi:arg2="-0.52359878" sodipodi:cx="83" sodipodi:cy="41" sodipodi:r1="6.0827627" sodipodi:r2="3.0413814" sodipodi:sides="3" sodipodi:type="star" style="opacity:1;fill:#000000;fill-opacity:1;fill-rule:evenodd;stroke:none;stroke-width:5.5;stroke-linecap:round;stroke-linejoin:miter;stroke-miterlimit:4;stroke-dasharray:none;stroke-dashoffset:0;stroke-opacity:1" transform="matrix(0,-1,1,0,-4,169.5)"/>
      <path d="M 83,34.917237 L 88.267827,44.041382 L 77.732173,44.041381 L 83,34.917237 z" id="path3569" inkscape:flatsided="true" inkscape:randomized="0" inkscape:rounded="0" sodipodi:arg1="-1.5707963" sodipodi:arg2="-0.52359878" sodipodi:cx="83" sodipodi:cy="41" sodipodi:r1="6.0827627" sodipodi:r2="3.0413814" sodipodi:sides="3" sodipodi:type="star" style="opacity:1;fill:#000000;fill-opacity:1;fill-rule:evenodd;stroke:none;stroke-width:5.5;stroke-linecap:round;stroke-linejoin:miter;stroke-miterlimit:4;stroke-dasharray:none;stroke-dashoffset:0;stroke-opacity:1" transform="matrix(-1,0,0,-1,165.5,173)"/>
      <path d="M 83,34.917237 L 88.267827,44.041382 L 77.732173,44.041381 L 83,34.917237 z" id="path3571" inkscape:flatsided="true" inkscape:randomized="0" inkscape:rounded="0" sodipodi:arg1="-1.5707963" sodipodi:arg2="-0.52359878" sodipodi:cx="83" sodipodi:cy="41" sodipodi:r1="6.0827627" sodipodi:r2="3.0413814" sodipodi:sides="3" sodipodi:type="star" style="opacity:1;fill:#000000;fill-opacity:1;fill-rule:evenodd;stroke:none;stroke-width:5.5;stroke-linecap:round;stroke-linejoin:miter;stroke-miterlimit:4;stroke-dasharray:none;stroke-dashoffset:0;stroke-opacity:1" transform="matrix(0,1,-1,0,169,3.5)"/>
      <path d="M 300,0 L 300,200 L 0,200 L 300,0 z" id="rect3581" sodipodi:nodetypes="cccc" style="fill:#0000ff;fill-opacity:1;fill-rule:evenodd;stroke:none;stroke-width:5.5;stroke-linecap:round;stroke-linejoin:miter;stroke-miterlimit:4;stroke-dashoffset:0;stroke-opacity:1"/>
      <path d="M 125,0 L 0,83.333333 L 0,0 L 125,0 z" id="path3584" sodipodi:nodetypes="cccc" style="fill:#ffff00;fill-opacity:1;fill-rule:evenodd;stroke:none;stroke-width:1px;stroke-linecap:butt;stroke-linejoin:miter;stroke-opacity:1"/>
    </g>
  </g>
</svg>

<svg xmlns="http://www.w3.org/2000/svg" viewBox="0 0 256 256" xmlns:xlink="http://www.w3.org/1999/xlink"><defs><path id="0" d="m83 34.917l5.268 9.124h-10.536l5.268-9.124" fill-rule="evenodd"/></defs><g transform="matrix(.85333 0 0 .85333 0 42.33)"><g fill-rule="evenodd"><path fill="#fff" d="m0 0h300v200h-300z"/><path d="m82.5 61l7.371 12.733 14.713.017-7.342 12.75 7.342 12.75-14.713.017-7.371 12.733-7.371-12.733-14.713-.017 7.342-12.75-7.342-12.75 14.713-.017 7.371-12.733" fill="#f00"/><path d="M122.5 86.5A40 40 0 1 1 42.5 86.5 40 40 0 1 1 122.5 86.5z" fill="none" stroke="#000" stroke-linecap="round" stroke-width="5.5"/></g><use transform="translate(-.5)" xlink:href="#0"/><use transform="matrix(0-1 1 0-4 169.5)" xlink:href="#0"/><use transform="matrix(-1 0 0-1 165.5 173)" xlink:href="#0"/><use transform="matrix(0 1-1 0 169 3.5)" xlink:href="#0"/><g fill-rule="evenodd"><path d="m300 0v200h-300l300-200" fill="#00f"/><path d="m125 0l-125 83.33v-83.33h125" fill="#ff0"/></g></g></svg>
